X: 11657
T: Eileen O'Callaghan's
R: reel
M: 4/4
K: Fmajor
|:F2AF cFAF|FFAc BGGC|FA~A2 cA~A2|cdec BGEG|
F2AF cFAF|FFAc BGGC|FA~A2 cA~A2|cdec BGEG:|
|:cffe f2ef|gc~c2 gc~c2|cf~f2 af~f2|gdec BGEG|
cffe f2ef|g2fa gfed|cf~f2 af~f2|cdec BGEG:|

